assets/icons/facebook.svg

<?xml version="1.0" encoding="UTF-8"?>
<svg width="9px" height="15px" viewBox="0 0 9 15" version="1.1" xmlns="http://www.w3.org/2000/svg" xmlns:xlink="http://www.w3.org/1999/xlink">
    <!-- Generator: Sketch 64 (93537) - https://sketch.com -->
    <title>facebook</title>
    <desc>Created with Sketch.</desc>
    <g id="Page-1" stroke="none" stroke-width="1" fill="none" fill-rule="evenodd">
        <g id="Daxil-ol---Qeydiyyat" transform="translate(-1083.000000, -862.000000)" fill="#FFFFFF" fill-rule="nonzero">
            <g id="BOTTOM" transform="translate(0.000000, 761.000000)">
                <g id="facebook" transform="translate(1083.000000, 101.000000)">
                    <path d="M5.2734375,15 L2.87132262,15 C2.47009277,15 2.14370728,14.6736145 2.14370728,14.2723846 L2.14370728,8.85429381 L0.742263809,8.85429381 C0.341033936,8.85429381 0.0146484375,8.52779388 0.0146484375,8.12667847 L0.0146484375,5.80501556 C0.0146484375,5.40378571 0.341033936,5.07740021 0.742263809,5.07740021 L2.14370728,5.07740021 L2.14370728,3.91479492 C2.14370728,2.76203156 2.50568391,1.78127288 3.19038393,1.07872008 C3.87817383,0.372962959 4.83936311,0 5.97003937,0 L7.80200959,0.00297544922 C8.2025528,0.00366210938 8.52836607,0.330047607 8.52836607,0.73059082 L8.52836607,2.88619995 C8.52836607,3.28742982 8.20209504,3.61381529 7.80097963,3.61381529 L6.5675354,3.61427309 C6.1913681,3.61427309 6.09558105,3.68968963 6.07509612,3.71280671 C6.04133607,3.75114439 6.0011673,3.85951995 6.0011673,4.15878296 L6.0011673,5.07728578 L7.70828247,5.07728578 C7.83679963,5.07728578 7.96131135,5.10898591 8.06831361,5.16872405 C8.29914094,5.29769897 8.44264983,5.54157258 8.44264983,5.80513002 L8.44173431,8.1267929 C8.44173431,8.52779388 8.11534881,8.85417938 7.71411896,8.85417938 L6.0011673,8.85417938 L6.0011673,14.2723846 C6.0011673,14.6736145 5.67466734,15 5.2734375,15 L5.2734375,15 Z M3.02307129,14.120636 L5.12168883,14.120636 L5.12168883,8.46061705 C5.12168883,8.19271087 5.3396988,7.97481536 5.60749055,7.97481536 L7.56237029,7.97481536 L7.56317139,5.95676423 L5.60737611,5.95676423 C5.33958434,5.95676423 5.12168883,5.73886872 5.12168883,5.47096254 L5.12168883,4.15878296 C5.12168883,3.81523131 5.15659333,3.42453003 5.41591644,3.13087465 C5.72925568,2.77587891 6.22306822,2.73490904 6.5673065,2.73490904 L7.64900209,2.73445131 L7.64900209,0.882110596 L5.96935271,0.879364014 C4.15225983,0.879364014 3.02307129,2.0425415 3.02307129,3.91479492 L3.02307129,5.47096254 C3.02307129,5.73875426 2.80517578,5.95676423 2.53738403,5.95676423 L0.894012451,5.95676423 L0.894012451,7.97481536 L2.53738403,7.97481536 C2.80517578,7.97481536 3.02307129,8.19271087 3.02307129,8.46061705 L3.02307129,14.120636 Z" id="Shape"></path>
                </g>
            </g>
        </g>
    </g>
</svg>

<svg width="9" height="15" xmlns="http://www.w3.org/2000/svg"><path d="M5.273 15H2.871a.728.728 0 01-.727-.728V8.854H.742a.728.728 0 01-.727-.727V5.805c0-.401.326-.728.727-.728h1.402V3.915c0-1.153.362-2.134 1.046-2.836C3.878.373 4.84 0 5.97 0l1.832.003c.4 0 .726.327.726.728v2.155a.728.728 0 01-.727.728H6.568c-.377 0-.472.076-.493.099-.034.038-.074.147-.074.446v.918h1.707a.73.73 0 01.734.728v2.322a.728.728 0 01-.728.727H6.001v5.418a.729.729 0 01-.728.728zm-2.25-.88h2.099V8.46c0-.267.218-.485.485-.485h1.955l.001-2.018H5.607a.486.486 0 01-.485-.486V4.159c0-.344.035-.734.294-1.028.313-.355.807-.396 1.151-.396H7.65V.881L5.969.88c-1.817 0-2.946 1.164-2.946 3.036V5.47a.486.486 0 01-.486.486H.894v2.018h1.643c.268 0 .486.218.486.486v5.66z" fill="#FFF" fill-rule="nonzero"/></svg>
